assets/img/logo_2.svg

<svg xmlns="http://www.w3.org/2000/svg" xmlns:xlink="http://www.w3.org/1999/xlink" width="2000" zoomAndPan="magnify" viewBox="0 0 1500 1499.999933" height="2000" preserveAspectRatio="xMidYMid meet" version="1.0"><path fill="#e8eceb" d="M 677.5625 241.921875 C 619.101562 244.742188 561.152344 260.128906 505.769531 287.179688 C 451.667969 313.71875 416.28125 338.71875 376.792969 378.078125 C 354.617188 400.257812 338.71875 419.101562 325.128906 439.742188 C 310.640625 461.667969 310.898438 462.308594 328.332031 445.898438 C 337.050781 437.691406 348.078125 427.820312 352.820312 423.972656 C 382.691406 399.488281 421.410156 379.871094 462.691406 368.078125 C 487.820312 360.898438 506.027344 357.820312 528.847656 356.792969 C 556.792969 355.769531 592.308594 359.101562 592.308594 362.820312 C 592.308594 364.359375 595.640625 364.101562 566.667969 365.382812 C 537.691406 366.667969 518.332031 369.742188 492.949219 376.921875 C 435 393.460938 390 418.078125 347.820312 456.152344 C 292.308594 506.28125 255.640625 585.128906 243.332031 680.769531 C 241.28125 696.539062 241.28125 753.078125 243.332031 771.152344 C 251.792969 846.28125 273.460938 910.511719 311.921875 974.359375 C 366.792969 1065.382812 453.460938 1138.203125 557.308594 1180.128906 C 601.027344 1197.949219 659.230469 1212.5625 697.4375 1215.640625 C 718.078125 1217.179688 766.027344 1216.152344 791.667969 1213.460938 C 896.152344 1202.4375 989.617188 1164.230469 1066.667969 1100.898438 C 1081.921875 1088.332031 1117.949219 1051.792969 1130.257812 1036.539062 C 1184.871094 968.332031 1217.4375 890.257812 1231.410156 794.617188 C 1234.101562 775.898438 1235.640625 755 1237.179688 717.308594 C 1237.949219 699.617188 1238.972656 681.792969 1239.617188 677.5625 C 1246.28125 633.71875 1261.410156 602.050781 1296.152344 559.617188 C 1328.203125 520.382812 1341.792969 498.203125 1350.511719 470.769531 C 1356.921875 450.382812 1358.332031 439.871094 1358.203125 410.898438 C 1358.203125 382.050781 1357.308594 375.128906 1350 346.152344 C 1344.617188 325.257812 1333.71875 296.152344 1331.152344 296.152344 C 1330.511719 296.152344 1329.359375 300.898438 1328.460938 306.539062 C 1326.152344 320.898438 1319.359375 339.230469 1312.4375 349.617188 C 1304.488281 361.539062 1289.742188 375.382812 1269.871094 389.742188 C 1260.769531 396.28125 1249.230469 405 1244.230469 409.101562 C 1216.667969 431.667969 1203.589844 453.71875 1198.71875 485.640625 C 1196.921875 497.050781 1195.382812 498.460938 1192.949219 490.257812 C 1190 480.640625 1180.769531 463.847656 1172.5625 453.332031 C 1154.871094 430.640625 1141.027344 420.640625 1095.769531 397.691406 C 1078.972656 389.230469 1060.257812 378.972656 1054.101562 374.871094 C 1034.230469 361.667969 1019.230469 344.230469 1011.410156 325.257812 C 1009.230469 320.128906 1007.050781 315.511719 1006.539062 315 C 1004.871094 313.332031 1002.5625 324.617188 1001.027344 343.078125 C 998.460938 373.589844 1002.820312 412.820312 1011.667969 440.128906 C 1016.921875 456.28125 1026.28125 475.511719 1036.667969 491.28125 C 1047.949219 508.460938 1071.539062 532.050781 1100.640625 555.382812 C 1135.769531 583.460938 1147.820312 597.050781 1158.847656 620.769531 C 1167.5625 639.488281 1169.617188 650.640625 1169.742188 679.488281 C 1169.742188 700 1169.230469 707.308594 1166.921875 720.511719 C 1158.203125 768.972656 1140.511719 805.898438 1111.667969 836.28125 C 1100.128906 848.332031 1089.617188 856.28125 1071.792969 866.152344 L 1058.460938 873.71875 L 1033.332031 874.488281 C 974.230469 876.539062 944.742188 885.898438 845.640625 934.617188 C 778.460938 967.691406 733.332031 982.691406 687.949219 987.308594 C 664.742188 989.617188 630.128906 988.203125 610.898438 984.101562 C 568.460938 975.128906 533.207031 957.179688 506.667969 931.027344 C 491.410156 916.027344 474.742188 893.71875 471.410156 883.972656 C 470.382812 880.898438 470.382812 880.898438 481.921875 896.152344 C 518.460938 944.488281 570.769531 971.28125 638.460938 976.28125 C 663.332031 978.203125 705.257812 971.410156 737.4375 960.382812 C 772.050781 948.589844 796.28125 936.410156 855.898438 901.28125 C 917.4375 864.871094 960.769531 848.460938 1003.847656 845 C 1026.152344 843.203125 1054.488281 845.769531 1068.847656 850.898438 C 1073.460938 852.4375 1063.589844 843.460938 1053.203125 836.539062 C 1022.820312 816.28125 990.128906 807.949219 946.792969 809.359375 C 921.667969 810.257812 904.742188 813.203125 856.410156 825.511719 C 818.460938 835.128906 807.4375 837.4375 788.460938 839.871094 C 773.078125 841.921875 738.207031 841.792969 725.640625 839.742188 C 712.4375 837.5625 688.589844 830.257812 679.101562 825.382812 C 641.027344 806.28125 613.207031 773.847656 600.257812 733.332031 C 594.617188 715.511719 593.078125 703.078125 593.972656 678.332031 C 594.871094 650.511719 600.128906 627.308594 610 607.691406 C 615 597.5625 618.71875 594.101562 616.667969 601.28125 C 616.027344 603.460938 614.230469 613.203125 612.691406 622.820312 C 610.382812 637.820312 610 643.460938 610.640625 662.691406 C 611.410156 688.078125 612.949219 696.410156 621.28125 721.667969 C 628.078125 742.308594 635.511719 756.027344 649.359375 773.460938 C 664.230469 792.050781 682.308594 807.050781 701.921875 817.050781 C 711.667969 821.921875 729.488281 828.71875 730.257812 827.820312 C 730.511719 827.5625 727.179688 824.617188 722.820312 821.027344 C 707.4375 808.847656 700.257812 794.488281 699.101562 774.359375 C 697.308594 742.949219 710.511719 707.4375 733.078125 683.332031 C 743.71875 671.792969 750.128906 668.203125 761.792969 667.050781 C 772.050781 666.152344 779.488281 667.820312 798.078125 675.128906 C 820.382812 683.847656 831.792969 686.410156 847.4375 686.410156 C 859.488281 686.539062 861.539062 686.152344 867.308594 683.078125 C 881.667969 675.511719 885.898438 667.4375 886.921875 646.410156 L 887.5625 631.792969 L 894.359375 628.847656 C 905.382812 623.972656 909.488281 613.460938 904.359375 603.460938 C 902.5625 600.128906 902.5625 599.359375 903.972656 598.847656 C 905 598.589844 907.691406 596.410156 910 594.101562 C 915 589.101562 915.382812 583.972656 911.410156 575 C 907.691406 566.792969 909.101562 564.230469 920.511719 558.203125 C 932.050781 552.179688 935.257812 547.820312 935.257812 538.460938 C 935.128906 530.640625 933.972656 527.820312 923.847656 510.382812 C 908.589844 484.359375 906.027344 471.539062 911.539062 449.359375 C 913.078125 442.949219 914.742188 432.949219 915.257812 426.921875 L 916.027344 416.027344 L 925.640625 415.382812 L 935.257812 414.742188 L 935.640625 410.382812 C 936.28125 404.617188 927.691406 375 921.410156 360.898438 C 906.410156 327.308594 884.359375 302.5625 851.539062 282.179688 C 813.460938 258.71875 770.898438 245.898438 719.101562 242.308594 C 701.410156 241.152344 694.617188 241.027344 677.5625 241.921875 Z M 885.128906 334.230469 C 894.742188 344.101562 906.28125 367.308594 911.027344 386.152344 C 913.71875 397.050781 913.078125 398.71875 906.539062 398.71875 L 901.539062 398.71875 L 900.640625 391.28125 C 898.078125 369.617188 891.921875 351.539062 882.179688 337.179688 C 875.898438 327.949219 877.5625 326.410156 885.128906 334.230469 Z M 833.972656 506.027344 L 839.488281 512.179688 L 875.382812 512.5625 C 907.5625 512.949219 911.410156 513.203125 913.203125 515.128906 C 916.410156 518.71875 924.359375 534.488281 924.359375 537.308594 C 924.359375 542.949219 920.511719 547.308594 912.179688 551.410156 C 907.4375 553.71875 902.5625 556.921875 901.152344 558.71875 C 897.949219 562.820312 898.078125 569.230469 901.410156 575.769531 C 902.820312 578.71875 903.71875 581.28125 903.332031 581.667969 C 903.078125 582.050781 898.972656 582.691406 894.230469 583.332031 C 887.5625 584.101562 884.101562 585.511719 877.691406 589.617188 C 873.332031 592.5625 866.539062 595.898438 862.820312 597.179688 C 858.972656 598.460938 856.410156 599.871094 857.179688 600.257812 C 860.511719 602.179688 867.949219 602.308594 873.589844 600.640625 C 883.332031 597.691406 888.078125 598.078125 892.4375 602.4375 C 897.179688 607.179688 897.308594 612.5625 892.949219 616.667969 C 889.359375 620.128906 881.410156 620.511719 873.847656 617.820312 C 871.28125 616.921875 868.972656 616.410156 868.71875 616.792969 C 868.332031 617.179688 869.742188 623.460938 871.792969 630.640625 C 873.972656 637.949219 875.640625 646.027344 875.640625 648.71875 C 875.640625 661.667969 866.792969 673.460938 855.898438 675 C 830.257812 678.847656 765.640625 652.050781 728.589844 622.179688 C 713.589844 610.128906 699.871094 595.511719 691.667969 582.949219 C 688.078125 577.691406 684.871094 573.203125 684.359375 573.203125 C 683.207031 573.078125 684.488281 582.820312 687.179688 592.949219 C 690.257812 604.488281 703.847656 633.078125 710.898438 642.949219 C 713.972656 647.179688 719.617188 653.71875 723.589844 657.5625 L 730.640625 664.617188 L 723.847656 672.308594 C 702.179688 697.308594 690.511719 721.410156 687.179688 748.078125 C 686.410156 754.359375 685.511719 759.742188 685.257812 760 C 684.101562 761.152344 676.410156 754.359375 669.359375 746.152344 C 648.078125 721.410156 638.332031 698.972656 633.207031 662.949219 C 630.128906 641.28125 634.230469 604.230469 642.050781 582.050781 C 650.511719 558.589844 665.769531 534.230469 682.308594 517.949219 L 687.820312 512.5625 L 747.949219 512.691406 C 805.898438 512.949219 808.207031 512.820312 813.332031 510.257812 C 816.28125 508.847656 820.382812 506.027344 822.4375 503.847656 C 824.488281 501.792969 826.667969 500 827.308594 500 C 827.949219 500 830.898438 502.691406 833.972656 506.027344 Z M 429.488281 841.28125 C 435.898438 867.4375 448.207031 893.71875 463.71875 914.230469 C 487.820312 946.28125 518.847656 970.898438 555.128906 986.539062 C 590.128906 1001.792969 623.078125 1007.949219 669.871094 1008.078125 C 698.71875 1008.203125 715.898438 1006.410156 743.847656 1000.511719 C 757.4375 997.691406 796.792969 986.410156 804.101562 983.332031 C 812.308594 979.871094 886.667969 952.691406 904.230469 946.792969 C 944.101562 933.078125 975 927.4375 1001.28125 928.589844 C 1024.488281 929.742188 1036.152344 933.589844 1045.382812 943.078125 C 1055.769531 953.71875 1054.617188 972.308594 1042.308594 992.949219 C 1036.667969 1002.4375 1015.257812 1024.871094 1001.921875 1035.257812 C 950.128906 1075.640625 882.308594 1100.769531 809.617188 1106.410156 C 779.488281 1108.847656 735.640625 1104.742188 705.128906 1096.667969 C 698.460938 1094.871094 692.4375 1092.949219 691.792969 1092.308594 C 690.898438 1091.410156 701.152344 1091.027344 720 1091.027344 C 754.742188 1090.898438 767.308594 1089.871094 795.257812 1084.488281 C 830.382812 1077.820312 862.5625 1065.511719 881.152344 1051.921875 C 896.152344 1040.769531 899.359375 1027.691406 888.203125 1022.949219 C 881.152344 1020 855.511719 1020.898438 825 1025.382812 C 759.488281 1035 757.691406 1035.128906 711.539062 1035.128906 C 676.539062 1035.257812 665.640625 1034.871094 652.5625 1032.949219 C 595 1024.617188 544.488281 1004.101562 505.769531 973.332031 C 467.050781 942.5625 437.5625 897.4375 425.640625 850.511719 C 423.078125 840.382812 422.050781 821.539062 424.230469 823.71875 C 424.871094 824.488281 427.308594 832.308594 429.488281 841.28125 Z M 429.488281 841.28125 " fill-opacity="1" fill-rule="nonzero"/><path fill="#e8eceb" d="M 729.742188 527.691406 C 730 529.488281 731.792969 530.382812 736.539062 531.152344 C 746.539062 532.691406 771.027344 538.332031 776.410156 540.257812 C 779.230469 541.152344 783.460938 542.308594 786.027344 542.820312 C 790.640625 543.589844 790.898438 543.460938 794.101562 537.820312 C 796.28125 533.71875 796.792969 531.792969 795.769531 531.410156 C 791.792969 530.128906 762.949219 527.050781 747.050781 526.28125 C 730.257812 525.382812 729.230469 525.511719 729.742188 527.691406 Z M 729.742188 527.691406 " fill-opacity="1" fill-rule="nonzero"/><path fill="#e8eceb" d="M 873.847656 538.972656 C 867.949219 552.179688 878.589844 559.101562 893.972656 552.050781 C 897.691406 550.382812 901.792969 548.589844 903.203125 547.949219 C 905.257812 547.050781 904.742188 546.792969 900.382812 546.410156 C 896.792969 546.152344 893.332031 546.921875 889.871094 548.589844 C 883.847656 551.792969 883.460938 551.792969 880.128906 549.230469 C 878.460938 547.949219 877.4375 545.257812 876.921875 540.640625 L 876.152344 533.972656 Z M 873.847656 538.972656 " fill-opacity="1" fill-rule="nonzero"/><path fill="#e8eceb" d="M 724.359375 542.050781 C 724.359375 543.847656 729.359375 546.539062 746.027344 553.71875 L 767.691406 563.078125 L 772.308594 559.488281 C 774.871094 557.4375 776.921875 555.382812 776.921875 555 C 776.921875 554.617188 774.742188 553.589844 772.179688 552.691406 C 761.539062 549.359375 727.5625 539.742188 726.027344 539.742188 C 725.128906 539.742188 724.359375 540.769531 724.359375 542.050781 Z M 724.359375 542.050781 " fill-opacity="1" fill-rule="nonzero"/></svg>

<svg xmlns="http://www.w3.org/2000/svg" width="2000" height="2000" viewBox="0 0 1500 1500"><path fill="#e8eceb" d="M677.563 241.922c-58.461 2.82-116.41 18.207-171.793 45.258-54.102 26.539-89.489 51.539-128.977 90.898-22.176 22.18-38.074 41.024-51.664 61.664-14.488 21.926-14.23 22.567 3.203 6.156 8.719-8.207 19.746-18.078 24.488-21.925 29.871-24.485 68.59-44.102 109.871-55.895 25.13-7.18 43.336-10.258 66.157-11.285 27.945-1.023 63.46 2.309 63.46 6.027 0 1.54 3.333 1.282-25.64 2.563-28.977 1.285-48.336 4.36-73.719 11.539C435 393.46 390 418.078 347.82 456.152c-55.511 50.13-92.18 128.977-104.488 224.618-2.05 15.77-2.05 72.308 0 90.382 8.461 75.13 30.129 139.36 68.59 203.207 54.871 91.024 141.539 163.844 245.387 205.77 43.718 17.82 101.921 32.434 140.129 35.512 20.64 1.539 68.59.511 94.23-2.18 104.484-11.024 197.95-49.23 275-112.563 15.254-12.566 51.281-49.105 63.59-64.359 54.613-68.207 87.18-146.281 101.152-241.922 2.692-18.719 4.23-39.617 5.77-77.308.77-17.692 1.793-35.516 2.437-39.746 6.664-43.844 21.793-75.512 56.535-117.946 32.051-39.234 45.641-61.414 54.36-88.847 6.41-20.387 7.82-30.899 7.691-59.872 0-28.847-.894-35.77-8.203-64.746-5.383-20.894-16.281-50-18.848-50-.64 0-1.793 4.746-2.691 10.387-2.309 14.36-9.102 32.691-16.024 43.078-7.949 11.922-22.695 25.766-42.566 40.125-9.101 6.54-20.64 15.258-25.64 19.36-27.563 22.566-40.641 44.617-45.512 76.539-1.797 11.41-3.336 12.82-5.77 4.617-2.949-9.617-12.18-26.41-20.387-36.926-17.69-22.691-31.535-32.691-76.792-55.64-16.797-8.462-35.512-18.72-41.668-22.82-19.872-13.204-34.872-30.642-42.692-49.614-2.18-5.13-4.36-9.746-4.87-10.258-1.669-1.668-3.977 9.617-5.513 28.078-2.566 30.512 1.793 69.742 10.641 97.05 5.254 16.153 14.613 35.384 25 51.153 11.281 17.18 34.871 40.77 63.973 64.102 35.129 28.078 47.18 41.668 58.207 65.387 8.715 18.718 10.77 29.87 10.894 58.718 0 20.512-.512 27.82-2.82 41.024-8.719 48.46-26.41 85.386-55.254 115.77-11.54 12.05-22.05 20-39.875 29.87l-13.332 7.567-25.129.77c-59.102 2.05-88.59 11.41-187.691 60.128-67.18 33.074-112.309 48.074-157.692 52.692-23.207 2.308-57.82.894-77.05-3.207-42.438-8.973-77.692-26.922-104.231-53.075-15.258-15-31.926-37.308-35.258-47.054-1.027-3.075-1.027-3.075 10.512 12.18 36.539 48.335 88.848 75.128 156.539 80.128 24.871 1.922 66.797-4.87 98.976-15.898 34.614-11.793 58.844-23.973 118.461-59.102 61.54-36.41 104.872-52.82 147.95-56.281 22.304-1.797 50.64.77 65 5.898 4.613 1.54-5.258-7.437-15.645-14.359-30.383-20.258-63.074-28.59-106.41-27.18-25.125.899-42.05 3.844-90.383 16.153-37.95 9.617-48.972 11.926-67.95 14.36-15.382 2.05-50.253 1.921-62.82-.13-13.202-2.18-37.05-9.484-46.538-14.36-38.075-19.1-65.895-51.534-78.844-92.05-5.64-17.82-7.18-30.254-6.285-55 .898-27.82 6.156-51.023 16.027-70.64 5-10.13 8.719-13.59 6.668-6.41-.64 2.179-2.438 11.921-3.977 21.538-2.308 15-2.691 20.64-2.05 39.871.77 25.387 2.308 33.72 10.64 58.977 6.797 20.64 14.23 34.36 28.078 51.793 14.871 18.59 32.95 33.59 52.563 43.59 9.746 4.87 27.566 11.668 28.336 10.77.254-.259-3.078-3.204-7.438-6.794-15.383-12.18-22.562-26.539-23.718-46.668-1.793-31.41 11.41-66.922 33.976-91.027 10.64-11.539 17.05-15.129 28.715-16.281 10.258-.899 17.695.77 36.285 8.078 22.305 8.719 33.715 11.281 49.36 11.281 12.05.13 14.101-.258 19.87-3.332 14.36-7.566 18.59-15.64 19.614-36.668l.64-14.617 6.797-2.945c11.024-4.875 15.13-15.387 10-25.387-1.797-3.332-1.797-4.102-.386-4.613 1.027-.258 3.718-2.438 6.027-4.746 5-5 5.383-10.13 1.41-19.102-3.719-8.207-2.308-10.77 9.102-16.797 11.539-6.023 14.746-10.383 14.746-19.742-.13-7.82-1.285-10.64-11.41-28.078-15.258-26.024-17.82-38.844-12.309-61.024 1.54-6.41 3.203-16.41 3.719-22.437l.77-10.895 9.613-.644 9.617-.64.383-4.36c.64-5.766-7.95-35.383-14.23-49.485-15-33.59-37.052-58.336-69.872-78.718-38.078-23.461-80.64-36.282-132.437-39.871-17.692-1.157-24.485-1.282-41.54-.387m207.566 92.308c9.613 9.872 21.152 33.079 25.898 51.922 2.692 10.899 2.051 12.567-4.488 12.567h-5l-.898-7.438c-2.563-21.664-8.72-39.742-18.461-54.101-6.282-9.23-4.617-10.77 2.949-2.95m-51.156 171.797 5.515 6.153 35.895.383c32.18.386 36.027.64 37.82 2.566 3.207 3.59 11.156 19.36 11.156 22.18 0 5.64-3.847 10-12.18 14.101-4.741 2.309-9.616 5.512-11.027 7.309-3.203 4.101-3.074 10.511.258 17.05 1.41 2.95 2.309 5.512 1.922 5.899-.254.383-4.36 1.023-9.102 1.664-6.668.77-10.128 2.18-16.539 6.285-4.359 2.946-11.152 6.281-14.87 7.563-3.848 1.28-6.41 2.691-5.641 3.078 3.332 1.922 10.77 2.05 16.41.383 9.742-2.95 14.488-2.563 18.847 1.797 4.743 4.742 4.872 10.125.512 14.23-3.59 3.46-11.539 3.844-19.101 1.152-2.567-.898-4.875-1.41-5.13-1.027-.386.387 1.024 6.668 3.075 13.848 2.18 7.308 3.848 15.386 3.848 18.078 0 12.949-8.848 24.742-19.743 26.281-25.64 3.848-90.257-22.95-127.308-52.82-15-12.051-28.719-26.668-36.922-39.23-3.59-5.259-6.797-9.747-7.309-9.747-1.152-.125.13 9.617 2.82 19.746 3.079 11.54 16.669 40.13 23.72 50 3.074 4.23 8.718 10.77 12.69 14.614l7.052 7.054-6.793 7.692c-21.668 25-33.336 49.101-36.668 75.77-.77 6.28-1.668 11.663-1.922 11.921-1.156 1.152-8.848-5.64-15.899-13.848-21.28-24.742-31.027-47.18-36.152-83.203-3.078-21.668 1.023-58.719 8.844-80.898 8.46-23.461 23.719-47.82 40.258-64.102l5.511-5.386 60.13.128c57.948.258 60.257.13 65.382-2.433 2.95-1.41 7.05-4.23 9.106-6.41 2.05-2.055 4.23-3.848 4.87-3.848.641 0 3.59 2.691 6.665 6.027M429.488 841.281c6.41 26.157 18.719 52.438 34.23 72.95 24.102 32.05 55.13 56.667 91.41 72.308 35 15.254 67.95 21.41 114.743 21.54 28.848.124 46.027-1.669 73.977-7.567 13.59-2.82 52.945-14.102 60.254-17.18 8.207-3.46 82.566-30.64 100.128-36.539 39.872-13.715 70.77-19.356 97.051-18.203 23.207 1.152 34.871 5 44.102 14.488 10.387 10.64 9.234 29.23-3.074 49.871-5.641 9.489-27.051 31.922-40.387 42.309-51.793 40.383-119.613 65.512-192.305 71.152-30.129 2.438-73.976-1.668-104.488-9.742-6.668-1.797-12.692-3.719-13.336-4.36-.895-.898 9.36-1.28 28.207-1.28 34.742-.13 47.309-1.157 75.258-6.54 35.125-6.668 67.304-18.976 85.894-32.566 15-11.152 18.207-24.23 7.051-28.973-7.05-2.949-32.691-2.05-63.203 2.434-65.512 9.617-67.309 9.746-113.46 9.746-35 .129-45.9-.258-58.977-2.18-57.563-8.332-108.075-28.847-146.793-59.617-38.72-30.77-68.207-75.894-80.13-122.82-2.562-10.13-3.59-28.973-1.41-26.793.641.77 3.079 8.59 5.258 17.562m0 0"/><path fill="#e8eceb" d="M729.742 527.691c.258 1.797 2.051 2.692 6.797 3.461 10 1.54 34.488 7.18 39.871 9.106 2.82.894 7.05 2.05 9.617 2.562 4.614.77 4.871.64 8.075-5 2.18-4.101 2.691-6.027 1.668-6.41-3.977-1.281-32.82-4.36-48.72-5.129-16.792-.898-17.82-.77-17.308 1.41m144.106 11.282c-5.899 13.207 4.742 20.129 20.125 13.078 3.718-1.668 7.82-3.461 9.23-4.102 2.055-.898 1.54-1.156-2.82-1.539-3.59-.258-7.051.512-10.512 2.18-6.023 3.203-6.41 3.203-9.742.64-1.668-1.28-2.692-3.972-3.207-8.59l-.77-6.667ZM724.36 542.05c0 1.798 5 4.49 21.667 11.669l21.664 9.36 4.618-3.59c2.562-2.052 4.613-4.106 4.613-4.489s-2.18-1.41-4.742-2.309c-10.64-3.332-44.617-12.949-46.153-12.949-.898 0-1.668 1.028-1.668 2.309m0 0"/></svg>
